X:542
T: GESTERN ABEND IN DER STILLEN RUH
N: E0522B
O: Europa, Mitteleuropa, Deutschland, Hessen, Odenwald
R: Liebes - Lied
M: 2/4
L: 1/16
K: F
 | F2G2A2A2 | A2c2fcA2 | A4G4 |
G2F2E2F2 | G2GAcBG2 | G4F4 |
c2ABc2ABc4 | B2GAB2GAB3c
A3AA2A2 | A2c2fcA2 | A4G2
A2cBG2 | G4F4

@@@ Tune index: 4192
